icons/svg/subway/subway_tbilisi.svg

<?xml version="1.0" encoding="UTF-8" standalone="no"?>
<svg
   xmlns:dc="http://purl.org/dc/elements/1.1/"
   xmlns:cc="http://creativecommons.org/ns#"
   xmlns:rdf="http://www.w3.org/1999/02/22-rdf-syntax-ns#"
   xmlns:svg="http://www.w3.org/2000/svg"
   xmlns="http://www.w3.org/2000/svg"
   xmlns:sodipodi="http://sodipodi.sourceforge.net/DTD/sodipodi-0.dtd"
   xmlns:inkscape="http://www.inkscape.org/namespaces/inkscape"
   width="16"
   height="16"
   id="svg2"
   version="1.1"
   inkscape:version="0.91 r"
   sodipodi:docname="subway_tbilisi.svg">
  <defs
     id="defs13">
    <linearGradient
       gradientTransform="matrix(0.05446087,0,0,0.05446087,3.3593586,4.1582625)"
       x1="87.101639"
       y1="121.69753"
       x2="87.260849"
       y2="1.2385538"
       id="l1"
       gradientUnits="userSpaceOnUse">
      <stop
         style="stop-color:#e92203;stop-opacity:1"
         offset="0"
         id="stop5" />
      <stop
         style="stop-color:#ff0000;stop-opacity:0.64628822"
         offset="1"
         id="stop7" />
    </linearGradient>
    <linearGradient
       gradientTransform="matrix(0.08400469,0,0,0.08400469,0.8422306,2.0814238)"
       x1="87.101639"
       y1="121.69753"
       x2="87.260849"
       y2="1.2385538"
       id="l1-2"
       gradientUnits="userSpaceOnUse">
      <stop
         style="stop-color:#e92203;stop-opacity:1"
         offset="0"
         id="stop5-8" />
      <stop
         style="stop-color:#ff0000;stop-opacity:0.64628822"
         offset="1"
         id="stop7-4" />
    </linearGradient>
  </defs>
  <sodipodi:namedview
     pagecolor="#ffffff"
     bordercolor="#666666"
     borderopacity="1"
     objecttolerance="10"
     gridtolerance="10"
     guidetolerance="10"
     inkscape:pageopacity="0"
     inkscape:pageshadow="2"
     inkscape:window-width="1920"
     inkscape:window-height="1004"
     id="namedview11"
     showgrid="true"
     inkscape:zoom="45.254834"
     inkscape:cx="5.4132366"
     inkscape:cy="9.4272562"
     inkscape:window-x="1680"
     inkscape:window-y="0"
     inkscape:window-maximized="1"
     inkscape:current-layer="svg2"
     showguides="false">
    <sodipodi:guide
       position="0,0"
       orientation="0,580"
       id="guide2989" />
    <sodipodi:guide
       position="580,0"
       orientation="-580,0"
       id="guide2991" />
    <sodipodi:guide
       position="580,580"
       orientation="0,-580"
       id="guide2993" />
    <sodipodi:guide
       position="0,580"
       orientation="580,0"
       id="guide2995" />
    <sodipodi:guide
       position="0,0"
       orientation="0,580"
       id="guide2997" />
    <sodipodi:guide
       position="580,0"
       orientation="-580,0"
       id="guide2999" />
    <sodipodi:guide
       position="580,580"
       orientation="0,-580"
       id="guide3001" />
    <sodipodi:guide
       position="0,580"
       orientation="580,0"
       id="guide3003" />
    <inkscape:grid
       type="xygrid"
       id="grid3013"
       empspacing="5"
       visible="true"
       enabled="true"
       snapvisiblegridlinesonly="true" />
  </sodipodi:namedview>
  <metadata
     id="metadata2975">image/svg+xmlen<rdf:RDF>
  <cc:Work
     rdf:about="">
    <dc:format>image/svg+xml</dc:format>
    <dc:type
       rdf:resource="http://purl.org/dc/dcmitype/StillImage" />
    <dc:title />
  </cc:Work>
</rdf:RDF>
</metadata>
  <path
     style="fill:#fefefe;fill-opacity:1;stroke:none"
     d="M 9.03929,3.7557708 C 8.3405581,3.6026479 7.4135516,3.6298463 6.7188762,3.8136579 5.2814286,4.1940088 4.070478,5.1928978 3.4279283,6.5294289 3.0536397,7.3079649 2.9467092,7.8166667 2.9488195,8.8264415 c 0.00141,0.6728799 -0.00742,0.8731757 0.1404072,1.5432485 0.089371,0.405106 0.2479019,0.785635 0.4187584,1.102319 0.085428,0.158342 0.1714666,0.299379 0.2709612,0.426148 0.099495,0.126769 0.1261462,0.281356 0.5283745,0.379346 0.1415092,0.03448 0.1751701,0.02595 0.2512551,0.02955 0.076085,0.0036 0.163457,0.0061 0.2672663,0.0074 0.2076184,0.0024 0.4789455,8.87e-4 0.8042623,-0.0012 0.6483702,-0.0041 1.5111901,-0.0127 2.4694426,-0.01109 0,0 0.8570456,0.01358 1.7440056,0.01478 0.4434803,6e-4 0.8937383,-0.002 1.2550423,-0.01109 0.180654,-0.0046 0.337962,-0.01057 0.469256,-0.0197 0.06565,-0.0046 0.124589,-0.0091 0.184746,-0.01724 0.06016,-0.0082 0.09214,0.0064 0.259877,-0.0702 0.307828,-0.140664 0.376349,-0.314232 0.454477,-0.454476 0.07812,-0.140245 0.133008,-0.27872 0.183513,-0.417528 0.101012,-0.277612 0.178423,-0.563438 0.22416,-0.711888 C 13.015752,10.15678 13.01139,9.7371381 13.04459,8.878232 13.081276,7.9360958 12.931912,7.3093107 12.623368,6.6415084 11.943817,5.170708 10.618419,4.101827 9.03929,3.7557708 Z"
     id="path4328"
     inkscape:connector-curvature="0"
     sodipodi:nodetypes="ssssssscccccsccssssccss" />
  <path
     inkscape:connector-curvature="0"
     d="M 4.362751,11.742876 C 4.184721,11.699505 3.7549658,10.957435 3.6080063,10.291292 3.4610469,9.6251481 3.4816859,9.5538578 3.4802127,8.8489049 3.4780988,7.8374377 3.5383088,7.5450793 3.9064204,6.7793919 4.4798083,5.5867201 5.5700961,4.6874745 6.8549657,4.347496 7.3753553,4.2098003 8.4140181,4.183773 8.9244788,4.2956373 c 1.4177582,0.3106926 2.6060092,1.2672719 3.2170772,2.5898459 0.294122,0.6365902 0.407047,1.0870003 0.371859,1.9906527 -0.03431,0.8875795 -0.03968,1.2706671 -0.145203,1.6131761 -0.10735,0.348426 -0.305531,1.115308 -0.523433,1.214879 -0.220954,0.100961 -3.7319599,0.04557 -3.7319599,0.04557 -1.9883698,-0.0035 -3.5720381,0.0365 -3.7500681,-0.0068 z m 7.128883,-0.621062 C 11.710749,10.980303 11.957927,9.8020371 11.962733,8.8761359 11.966878,8.0824154 11.886411,7.706392 11.572442,7.0516964 11.159922,6.1915007 10.585005,5.6099488 9.737,5.1950717 9.1457713,4.9058191 8.6594349,4.7934614 7.9986438,4.7934614 c -0.6376639,0 -1.1182455,0.1056688 -1.6738054,0.3680318 C 5.4436091,5.5776531 4.8428208,6.1623658 4.4311451,7.0045159 4.1095644,7.6623618 4.0292323,8.0258169 4.0295095,8.8216744 c 3.431e-4,0.9821605 0.2023685,2.0255366 0.4377823,2.2609516 0.069826,0.06982 0.5506143,0.08076 3.5216267,0.08003 1.892418,-4.35e-4 3.4686395,-0.01883 3.5027155,-0.04084 z M 4.7309916,10.315497 4.7265372,9.6827537 c 0.062144,0 0.370742,0 0.3660609,0 C 5.6016216,8.391991 6.5797949,5.7830221 6.5876903,5.7791273 6.5771288,5.790967 8.050434,8.3200624 8.0450133,8.3172511 8.040001,8.3151073 9.389536,5.775678 9.3898577,5.7731252 c 0.00399,2.778e-4 1.4727393,3.9178601 1.4737543,3.9096285 0.04604,0.012986 0.164026,0 0.421987,0 -0.0056,0.00753 0.0032,0.6252113 0.0032,0.6327433 l -1.6347009,0.01114 c 0.00689,-0.01289 -0.010137,-0.6021768 -0.014488,-0.609633 0.00563,0 0.211079,-0.00595 0.211079,-0.00595 0.00462,0.00184 -0.6046725,-1.9075294 -0.6044113,-1.907607 -0.5221822,0.7664421 -1.1820359,2.5132815 -1.1630478,2.5120815 0.00232,0.01163 -1.1737754,-2.4557001 -1.1818984,-2.4586905 0.00673,0.0016 -0.7808724,1.8192018 -0.7748329,1.8259478 0,0 0.1932774,0 0.1932774,0 l 0,0.6327427 -1.5887012,0 z"
     style="fill:url(#l1);fill-opacity:1"
     id="path9" />
</svg>

<svg width="16" height="16" viewBox="0 0 16 16" fill="none" xmlns="http://www.w3.org/2000/svg">
<path d="M9.03929 3.75576C8.34056 3.60263 7.41355 3.62983 6.71888 3.81364C5.28143 4.19399 4.07048 5.19288 3.42793 6.52942C3.05364 7.30795 2.94671 7.81665 2.94882 8.82643C2.95023 9.49931 2.9414 9.6996 3.08923 10.3697C3.1786 10.7748 3.33713 11.1553 3.50799 11.472C3.59342 11.6303 3.67945 11.7714 3.77895 11.8981C3.87844 12.0249 3.90509 12.1795 4.30732 12.2775C4.44883 12.312 4.48249 12.3034 4.55858 12.307C4.63466 12.3106 4.72204 12.3131 4.82585 12.3144C5.03346 12.3168 5.30479 12.3153 5.63011 12.3132C6.27848 12.3091 7.1413 12.3005 8.09955 12.3021C8.09955 12.3021 8.95659 12.3157 9.84355 12.3169C10.287 12.3175 10.7373 12.3149 11.0986 12.3058C11.2793 12.3012 11.4366 12.2953 11.5679 12.2861C11.6335 12.2815 11.6924 12.277 11.7526 12.2689C11.8128 12.2607 11.8447 12.2753 12.0125 12.1987C12.3203 12.058 12.3888 11.8845 12.467 11.7442C12.5451 11.604 12.6 11.4655 12.6505 11.3267C12.7515 11.0491 12.8289 10.7633 12.8746 10.6148C13.0158 10.1568 13.0114 9.73712 13.0446 8.87822C13.0813 7.93608 12.9319 7.3093 12.6234 6.64149C11.9438 5.17069 10.6184 4.10181 9.03929 3.75576Z" fill="#FEFEFE"/>
<path d="M4.36277 11.7429C4.18474 11.6995 3.75499 10.9574 3.60803 10.2913C3.46107 9.62514 3.48171 9.55385 3.48023 8.8489C3.47812 7.83743 3.53833 7.54507 3.90644 6.77938C4.47983 5.58671 5.57012 4.68747 6.85499 4.34749C7.37538 4.20979 8.41404 4.18377 8.9245 4.29563C10.3423 4.60632 11.5305 5.5629 12.1416 6.88548C12.4357 7.52207 12.5486 7.97248 12.5134 8.87613C12.4791 9.76371 12.4738 10.1468 12.3682 10.4893C12.2609 10.8377 12.0627 11.6046 11.8448 11.7042C11.6238 11.8051 8.11284 11.7498 8.11284 11.7498C6.12447 11.7463 4.5408 11.7863 4.36277 11.743V11.7429ZM11.4917 11.1218C11.7108 10.9803 11.9579 9.80203 11.9628 8.87613C11.9669 8.08241 11.8864 7.70638 11.5725 7.05169C11.1599 6.19149 10.585 5.60994 9.73702 5.19506C9.14579 4.90581 8.65946 4.79345 7.99867 4.79345C7.361 4.79345 6.88042 4.89912 6.32486 5.16149C5.44363 5.57765 4.84284 6.16236 4.43117 7.00451C4.10959 7.66236 4.02925 8.02581 4.02953 8.82167C4.02987 9.80383 4.2319 10.8472 4.46731 11.0826C4.53714 11.1524 5.01793 11.1634 7.98894 11.1626C9.88136 11.1622 11.4576 11.1438 11.4917 11.1218V11.1218ZM4.73101 10.3155L4.72656 9.68275C4.7887 9.68275 5.0973 9.68275 5.09262 9.68275C5.60164 8.39198 6.57982 5.78301 6.58771 5.77912C6.57715 5.79096 8.05046 8.32006 8.04504 8.31724C8.04002 8.3151 9.38956 5.77567 9.38988 5.77312C9.39387 5.7734 10.8626 9.69098 10.8636 9.68275C10.9097 9.69573 11.0277 9.68275 11.2856 9.68275C11.28 9.69028 11.2888 10.308 11.2888 10.3155L9.65412 10.3266C9.66101 10.3137 9.64398 9.72445 9.63963 9.717C9.64526 9.717 9.85071 9.71105 9.85071 9.71105C9.85533 9.71289 9.24604 7.80352 9.2463 7.80344C8.72412 8.56988 8.06426 10.3167 8.08325 10.3155C8.08557 10.3272 6.90948 7.85982 6.90135 7.85683C6.90808 7.85843 6.12048 9.67603 6.12652 9.68278H6.3198V10.3155H4.7311L4.73101 10.3155Z" fill="url(#paint0_linear)"/>
<defs>
<linearGradient id="paint0_linear" x1="8.10301" y1="10.786" x2="8.11168" y2="4.22571" gradientUnits="userSpaceOnUse">
<stop stop-color="#E92203"/>
<stop offset="1" stop-color="#FF0000" stop-opacity="0.646288"/>
</linearGradient>
</defs>
</svg>
